X: 4100
T: The Gareloch
R: Strathspey.
%R: strathspey
B: James Kerr "Merry Melodies" v.4 p.13 #100
Z: 2016 John Chambers <jc:trillian.mit.edu>
M: C
L: 1/8
K: G
uD |\
G2D>C B,>G, G,>G | c>BA>G F<D D>F |\
G>BA>c B>dc>e | d<g d>c B<G G :|
|: d |\
g>dB>d g>dB>d | c>BA>G F<D D>F |\
(3GAB (3ABc (3Bcd (3cde | d<g d>c B<G G :|

%%sep 1 1 500
%%sep 1 1 500

